X: 1
T: Mora polskan [Boda polska]
O: Trad
N: Taught by Bengt Jonsson as a hambo.
N: Played in several different polska rhythms.
R: polska, hambo
M: 9/16
L: 1/16
K: Dm
|: "Dm(A7)"A2A- A2(^G A2)^c | "Dm"d2d- d2(^c d2)e \
|[1,3 "Gm(Bb)"f2f- f2(e d^c)d | "A7"e2e- e2^c A3 :|[2,4 "(Gm)"f2f- f2(e f2)g | "A7"a3 a6 :|
|: "A7"a2a- a(ba) g2(e | "Dm"f2)f- f2d e3- \
| "A7"e2(f e2)(^c A2)(c |1,3 "Dm"d2)(^c d2)(e f2)g :|2,4 "Dm"d3 d6 :|
